src/images/partners/influence.svg

<svg width="195" height="56" viewBox="0 0 195 56" fill="none" xmlns="http://www.w3.org/2000/svg">
<path d="M61.0161 43V17.08H66.2641V43H61.0161Z" fill="#2E0573"/>
<path d="M70.2334 43V17.08H73.9134L79.6734 30.584V17.08H84.0254V43H80.5054L74.7454 28.664V43H70.2334Z" fill="#2E0573"/>
<path d="M87.9521 43V17.08H98.8961V20.664H93.2321V27.672H98.0321V31.352H93.2321V43H87.9521Z" fill="#2E0573"/>
<path d="M101.546 43V17.08H106.826V39.416H112.906V43H101.546Z" fill="#2E0573"/>
<path d="M122.279 43.352C120.317 43.352 118.791 43.0213 117.703 42.36C116.615 41.6773 115.847 40.7067 115.399 39.448C114.973 38.168 114.759 36.6213 114.759 34.808V17.08H119.975V35.544C119.975 36.184 120.018 36.8133 120.103 37.432C120.21 38.0507 120.423 38.552 120.743 38.936C121.085 39.32 121.597 39.512 122.279 39.512C122.983 39.512 123.495 39.32 123.815 38.936C124.157 38.552 124.37 38.0507 124.455 37.432C124.541 36.8133 124.583 36.184 124.583 35.544V17.08H129.799V34.808C129.799 36.6213 129.575 38.168 129.127 39.448C128.701 40.7067 127.943 41.6773 126.855 42.36C125.767 43.0213 124.242 43.352 122.279 43.352Z" fill="#2E0573"/>
<path d="M133.483 43V17.08H144.779V20.728H138.763V27.608H143.403V31.288H138.763V39.416H144.843V43H133.483Z" fill="#2E0573"/>
<path d="M147.515 43V17.08H151.195L156.955 30.584V17.08H161.307V43H157.787L152.027 28.664V43H147.515Z" fill="#2E0573"/>
<path d="M172.433 43.352C170.513 43.352 168.988 42.9893 167.857 42.264C166.748 41.5387 165.969 40.536 165.521 39.256C165.073 37.9547 164.849 36.4507 164.849 34.744V25.432C164.849 23.64 165.073 22.104 165.521 20.824C165.969 19.5227 166.748 18.52 167.857 17.816C168.988 17.112 170.513 16.76 172.433 16.76C174.289 16.76 175.74 17.0693 176.785 17.688C177.852 18.3067 178.599 19.1813 179.025 20.312C179.473 21.4427 179.697 22.7547 179.697 24.248V26.424H174.577V23.992C174.577 23.3947 174.545 22.84 174.481 22.328C174.417 21.7947 174.236 21.368 173.937 21.048C173.66 20.7067 173.169 20.536 172.465 20.536C171.761 20.536 171.249 20.7067 170.929 21.048C170.609 21.3893 170.407 21.8373 170.321 22.392C170.236 22.9253 170.193 23.5227 170.193 24.184V35.96C170.193 36.6853 170.247 37.3253 170.353 37.88C170.481 38.4133 170.705 38.8293 171.025 39.128C171.367 39.4053 171.847 39.544 172.465 39.544C173.148 39.544 173.628 39.384 173.905 39.064C174.204 38.7227 174.385 38.2747 174.449 37.72C174.535 37.1653 174.577 36.5787 174.577 35.96V33.432H179.697V35.576C179.697 37.0907 179.484 38.4347 179.057 39.608C178.631 40.76 177.895 41.6773 176.849 42.36C175.804 43.0213 174.332 43.352 172.433 43.352Z" fill="#2E0573"/>
<path d="M182.921 43V17.08H194.217V20.728H188.201V27.608H192.841V31.288H188.201V39.416H194.281V43H182.921Z" fill="#2E0573"/>
<g clip-path="url(#clip0_3436_24)">
<path d="M17.179 6.89741L24.2516 0L31.3242 6.89741L24.2516 19.1431L17.179 6.89741ZM24.2516 36.8477L17.179 49.0934L24.2516 55.9908L31.3242 49.0934L24.2516 36.8477Z" fill="url(#paint0_linear_3436_24)"/>
<path d="M38.9871 11.3236L48.4941 13.9977L46.0505 23.5693H31.9052L38.9778 11.3236H38.9871ZM16.5796 32.4216H2.44361L0 41.9931L9.50702 44.6673L16.5796 32.4216Z" fill="url(#paint1_linear_3436_24)"/>
<path d="M2.44361 23.5693L0 13.9977L9.50702 11.3236L16.5796 23.5693H2.44361ZM31.9144 32.4216L38.9871 44.6673L48.4941 41.9931L46.0505 32.4216H31.9052H31.9144Z" fill="url(#paint2_linear_3436_24)"/>
</g>
<defs>
<linearGradient id="paint0_linear_3436_24" x1="24.2516" y1="56" x2="24.2516" y2="0" gradientUnits="userSpaceOnUse">
<stop stop-color="#7D33A9"/>
<stop offset="0.12" stop-color="#A832C4"/>
<stop offset="0.25" stop-color="#CD31DB"/>
<stop offset="0.37" stop-color="#E831EC"/>
<stop offset="0.48" stop-color="#F931F6"/>
<stop offset="0.56" stop-color="#FF31FA"/>
</linearGradient>
<linearGradient id="paint1_linear_3436_24" x1="24.2517" y1="44.6765" x2="24.2517" y2="11.3236" gradientUnits="userSpaceOnUse">
<stop stop-color="#531DB5"/>
<stop offset="1" stop-color="#8733FF"/>
</linearGradient>
<linearGradient id="paint2_linear_3436_24" x1="24.2517" y1="44.6765" x2="24.2517" y2="11.3236" gradientUnits="userSpaceOnUse">
<stop stop-color="#0099FF"/>
<stop offset="0.1" stop-color="#0EB1FF"/>
<stop offset="0.23" stop-color="#1FCDFF"/>
<stop offset="0.38" stop-color="#2DE3FF"/>
<stop offset="0.55" stop-color="#36F3FF"/>
<stop offset="0.73" stop-color="#3CFCFF"/>
<stop offset="1" stop-color="#3EFFFF"/>
</linearGradient>
<clipPath id="clip0_3436_24">
<rect width="48.4941" height="56" fill="white"/>
</clipPath>
</defs>
</svg>

<svg width="195" height="56" fill="none" xmlns="http://www.w3.org/2000/svg"><path d="M61.016 43V17.08h5.248V43h-5.248zm9.217 0V17.08h3.68l5.76 13.504V17.08h4.352V43h-3.52l-5.76-14.336V43h-4.512zm17.72 0V17.08h10.943v3.584h-5.664v7.008h4.8v3.68h-4.8V43h-5.28zm13.593 0V17.08h5.28v22.336h6.08V43h-11.36zm20.733.352c-1.962 0-3.488-.33-4.576-.992-1.088-.683-1.856-1.653-2.304-2.912-.426-1.28-.64-2.827-.64-4.64V17.08h5.216v18.464c0 .64.043 1.27.128 1.888.107.619.32 1.12.64 1.504.342.384.854.576 1.536.576.704 0 1.216-.192 1.536-.576.342-.384.555-.885.64-1.504.086-.619.128-1.248.128-1.888V17.08h5.216v17.728c0 1.813-.224 3.36-.672 4.64-.426 1.259-1.184 2.23-2.272 2.912-1.088.661-2.613.992-4.576.992zM133.483 43V17.08h11.296v3.648h-6.016v6.88h4.64v3.68h-4.64v8.128h6.08V43h-11.36zm14.032 0V17.08h3.68l5.76 13.504V17.08h4.352V43h-3.52l-5.76-14.336V43h-4.512zm24.918.352c-1.92 0-3.445-.363-4.576-1.088-1.109-.725-1.888-1.728-2.336-3.008-.448-1.301-.672-2.805-.672-4.512v-9.312c0-1.792.224-3.328.672-4.608.448-1.301 1.227-2.304 2.336-3.008 1.131-.704 2.656-1.056 4.576-1.056 1.856 0 3.307.31 4.352.928 1.067.619 1.814 1.493 2.24 2.624.448 1.13.672 2.443.672 3.936v2.176h-5.12v-2.432c0-.597-.032-1.152-.096-1.664-.064-.533-.245-.96-.544-1.28-.277-.341-.768-.512-1.472-.512s-1.216.17-1.536.512c-.32.341-.522.79-.608 1.344-.085.533-.128 1.13-.128 1.792V35.96c0 .725.054 1.365.16 1.92.128.533.352.95.672 1.248.342.277.822.416 1.44.416.683 0 1.163-.16 1.44-.48.299-.341.48-.79.544-1.344a11.49 11.49 0 0 0 .128-1.76v-2.528h5.12v2.144c0 1.515-.213 2.859-.64 4.032a5.484 5.484 0 0 1-2.208 2.752c-1.045.661-2.517.992-4.416.992zM182.921 43V17.08h11.296v3.648h-6.016v6.88h4.64v3.68h-4.64v8.128h6.08V43h-11.36z" fill="#2E0573"/><g clip-path="url(#clip0_3436_24)"><path d="M17.179 6.897L24.252 0l7.072 6.897-7.072 12.246-7.073-12.246zm7.073 29.95l-7.073 12.246 7.073 6.898 7.072-6.898-7.072-12.245z" fill="url(#paint0_linear_3436_24)"/><path d="M38.987 11.324l9.507 2.674-2.444 9.571H31.905l7.073-12.245h.01zM16.58 32.422H2.444L0 41.993l9.507 2.674 7.073-12.245z" fill="url(#paint1_linear_3436_24)"/><path d="M2.444 23.57L0 13.997l9.507-2.674 7.073 12.245H2.444zm29.47 8.852l7.073 12.245 9.507-2.674-2.444-9.571H31.905h.01z" fill="url(#paint2_linear_3436_24)"/></g><defs><linearGradient id="paint0_linear_3436_24" x1="24.252" y1="56" x2="24.252" gradientUnits="userSpaceOnUse"><stop stop-color="#7D33A9"/><stop offset=".12" stop-color="#A832C4"/><stop offset=".25" stop-color="#CD31DB"/><stop offset=".37" stop-color="#E831EC"/><stop offset=".48" stop-color="#F931F6"/><stop offset=".56" stop-color="#FF31FA"/></linearGradient><linearGradient id="paint1_linear_3436_24" x1="24.252" y1="44.676" x2="24.252" y2="11.324" gradientUnits="userSpaceOnUse"><stop stop-color="#531DB5"/><stop offset="1" stop-color="#8733FF"/></linearGradient><linearGradient id="paint2_linear_3436_24" x1="24.252" y1="44.676" x2="24.252" y2="11.324" gradientUnits="userSpaceOnUse"><stop stop-color="#09F"/><stop offset=".1" stop-color="#0EB1FF"/><stop offset=".23" stop-color="#1FCDFF"/><stop offset=".38" stop-color="#2DE3FF"/><stop offset=".55" stop-color="#36F3FF"/><stop offset=".73" stop-color="#3CFCFF"/><stop offset="1" stop-color="#3EFFFF"/></linearGradient><clipPath id="clip0_3436_24"><path fill="#fff" d="M0 0H48.494V56H0z"/></clipPath></defs></svg>
